X:1
T:Title
%%score { ( 1 3 ) | ( 2 4 5 ) }
L:1/8
Q:1/4=100
M:4/4
K:C
V:1 treble nm="Grand Piano"
V:3 treble 
V:2 bass 
V:4 bass 
V:5 bass 
V:1
 [EG]>[EG] [_E^F]>[=EG] [=FA]2 [EG]>_E | E>_E =E>_E =E3 [EG] | %2
w: N.~B.~Herrell * * * * * *||
 [Ec]>[FB] [Fc]>[B,FA] [CEG]>[K:bass][G,CE] [G,D]>[^F,A,C] | D4 z4[K:treble] | %4
w: ||
 [Ec]>[Ec] [FB]>[EA] [EG]3 [EG] | [Ec]>[Ec] [DB]>[CA] [EG]4 | D>D D>D A>A B>A | G6 z2 | %8
w: ||||
 [Ec]2 [Ec]2 [Ec]2 [Ec]2 | (3[Ec]cc [FB]>[FA] z2 G,2 | B2 [DB]2 [DB]2 [DB]2 | %11
w: |||
 (3[FB]BB [FA]>G [CEG]3 [G,EG] | [CEG]>[G,EG] [A,_E^F]>[G,=EG] [=FA]2 [EG]2 | %13
w: ||
[M:9/8] (4:3:4[Ec][Ec].[Ec] z z/ [Gc]<[Ad][Ac]/ A3 |[M:4/4] c>c B>A G>^F G>c | e2 d2 [Ec]4 |] %16
w: |||
V:2
 [C,C]>[C,C] [C,C]>[C,C] [C,C]2 [C,G,]>[C,G,B,] | %1
 [C,G,C]>[C,^F,C] [C,G,C]>[C,F,C] [C,G,C]3 [C,G,] | [C,G,]>[C,^G,] [C,A,]>C, C,>C, B,,>A,, | %3
 z4 G3 B,, | [C,G,]>[C,G,] [C,A,]>[C,B,] [C,C]3 [C,G,] | [A,,A,]>[A,,A,] [E,^G,]>[F,A,] [C,C]4 | %6
 [D,B,]>[D,A,] [D,G,B,]>[D,G,B,] [D,^F,C]>[D,F,C] [D,E,D]>[D,F,C] | B,2 z2 z4 | %8
 [C,G,]2 [G,,G,]2 [C,G,]2 [G,,G,]2 | G,2 z2 z4 | [D,G,D]2 [G,,G,]2 [D,G,]2 [G,,G,]2 | %11
 (3z[K:treble] FF[K:bass] z z/ F/ C,3 C, | C,>C, C,>C, [C,C]2 [C,C]2 | %13
[M:9/8] (4:3:4[C,G,][C,G,].[C,G,] z z/ [E,G,]<[F,C][F,C]/ [F,CF]3 | %14
[M:4/4] [F,A,_E]>[F,A,E] [F,CE]>[F,CE][K:treble] [G,C=E]>[A,C_E] [G,C=E]>[G,E] | %15
 [G,CG]2[K:bass] [G,,B,F]2 [C,C]4 |] %16
V:3
 x8 | x8 | x11/2[K:bass] x5/2 | [G,B,]6- [G,-B,]/G,/[K:treble][G,FG] | x8 | x8 | x8 | z2 D2 C2 F2 | %8
 x8 | z4 [EG]4 | x8 | z2 B,2 z4 | x8 |[M:9/8] z2 [FB]- [FB]/ z/ z z z3 |[M:4/4] x8 | x8 |] %16
V:4
 x8 | x8 | x8 | G,,8 | x8 | x8 | x8 | G,2- [F,G,-]2 [E,G,]2 D,2 | x8 | %9
 (3z EE [G,,G,]2 [C,G,]2 G,,2 | x8 | G,2[K:treble][K:bass] z2 z4 | x8 | %13
[M:9/8] z2 [D,G,]- [D,G,]/ z/ z z z3 |[M:4/4] x4[K:treble] x4 | x2[K:bass] x6 |] %16
V:5
 x8 | x8 | x8 | x8 | x8 | x8 | x8 | x8 | x8 | C,2 z2 z4 | x8 | D,2[K:treble][K:bass] G,,2 z4 | x8 | %13
[M:9/8] x9 |[M:4/4] x4[K:treble] x4 | x2[K:bass] x6 |] %16

